assets/images/contact-bg.svg

<svg width="665" height="807" viewBox="0 0 665 807" fill="none" xmlns="http://www.w3.org/2000/svg">
<mask id="mask0_142_3116" style="mask-type:luminance" maskUnits="userSpaceOnUse" x="-97" y="0" width="860" height="809">
<path d="M762.316 0H-96.3125V808.187H762.316V0Z" fill="white"/>
</mask>
<g mask="url(#mask0_142_3116)">
<path d="M762.316 0.000976562H-96.3125V808.188H762.316V0.000976562Z" fill="#D9D9D9"/>
<g opacity="0.5">
<path d="M761.53 811.343L396.543 811.345L548.753 0.00125496L761.53 -0.000244141V811.343Z" fill="#F2F2F2"/>
<path d="M452.675 356.29H453.419L368.787 808.189H368.043L452.675 356.29Z" fill="#BDBDBD"/>
<path d="M450.136 356.29H450.88L366.252 808.189H365.504L450.136 356.29Z" fill="#BDBDBD"/>
<path d="M447.601 356.29H448.349L363.717 808.189H362.969L447.601 356.29Z" fill="#BDBDBD"/>
<path d="M445.065 356.29H445.81L361.178 808.189H360.434L445.065 356.29Z" fill="#BDBDBD"/>
<path d="M442.53 356.29H443.274L358.643 808.189H357.898L442.53 356.29Z" fill="#BDBDBD"/>
<path d="M439.991 356.29H440.739L356.108 808.189H355.359L439.991 356.29Z" fill="#BDBDBD"/>
<path d="M437.456 356.29H438.204L353.572 808.189H352.828L437.456 356.29Z" fill="#BDBDBD"/>
<path d="M434.921 356.29H435.665L351.033 808.189H350.289L434.921 356.29Z" fill="#BDBDBD"/>
<path d="M432.382 356.29H433.126L348.498 808.189H347.75L432.382 356.29Z" fill="#BDBDBD"/>
<path d="M429.847 356.29H430.595L345.963 808.189H345.215L429.847 356.29Z" fill="#BDBDBD"/>
<path d="M427.311 356.29H428.056L343.424 808.189H342.68L427.311 356.29Z" fill="#BDBDBD"/>
<path d="M424.776 356.29H425.52L340.889 808.189H340.145L424.776 356.29Z" fill="#BDBDBD"/>
<path d="M422.237 356.29H422.985L338.354 808.189H337.605L422.237 356.29Z" fill="#BDBDBD"/>
<path d="M419.698 356.29H420.446L335.815 808.189H335.07L419.698 356.29Z" fill="#BDBDBD"/>
<path d="M417.167 356.29H417.911L333.279 808.189H332.535L417.167 356.29Z" fill="#BDBDBD"/>
<path d="M414.628 356.29H415.376L330.744 808.189H329.996L414.628 356.29Z" fill="#BDBDBD"/>
<path d="M412.093 356.29H412.841L328.209 808.189H327.465L412.093 356.29Z" fill="#BDBDBD"/>
<path d="M409.558 356.29H410.302L325.67 808.189H324.926L409.558 356.29Z" fill="#BDBDBD"/>
<path d="M407.018 356.29H407.763L323.135 808.189H322.387L407.018 356.29Z" fill="#BDBDBD"/>
<path d="M404.483 356.29H405.231L320.6 808.189H319.852L404.483 356.29Z" fill="#BDBDBD"/>
<path d="M401.948 356.29H402.692L318.061 808.189H317.316L401.948 356.29Z" fill="#BDBDBD"/>
<path d="M399.413 356.29H400.157L315.525 808.189H314.781L399.413 356.29Z" fill="#BDBDBD"/>
<path d="M396.874 356.29H397.622L312.99 808.189H312.242L396.874 356.29Z" fill="#BDBDBD"/>
<path d="M394.339 356.29H395.087L310.455 808.189H309.711L394.339 356.29Z" fill="#BDBDBD"/>
<path d="M391.804 356.29H392.548L307.916 808.189H307.172L391.804 356.29Z" fill="#BDBDBD"/>
<path d="M389.265 356.29H390.009L305.381 808.189H304.633L389.265 356.29Z" fill="#BDBDBD"/>
<path d="M386.729 356.29H387.478L302.846 808.189H302.098L386.729 356.29Z" fill="#BDBDBD"/>
<path d="M384.194 356.29H384.938L300.307 808.189H299.562L384.194 356.29Z" fill="#BDBDBD"/>
<path d="M381.659 356.29H382.403L297.773 808.189H297.027L381.659 356.29Z" fill="#BDBDBD"/>
<path d="M379.118 356.29H379.867L295.234 808.189H294.488L379.118 356.29Z" fill="#BDBDBD"/>
<path d="M537.39 -95.6099H538.134L453.502 356.289H452.758L537.39 -95.6099Z" fill="#BDBDBD"/>
<path d="M534.854 -95.6099H535.599L450.971 356.289H450.223L534.854 -95.6099Z" fill="#BDBDBD"/>
<path d="M532.315 -95.6099H533.064L448.432 356.289H447.684L532.315 -95.6099Z" fill="#BDBDBD"/>
<path d="M529.78 -95.6099H530.524L445.893 356.289H445.148L529.78 -95.6099Z" fill="#BDBDBD"/>
<path d="M527.245 -95.6099H527.989L443.358 356.289H442.613L527.245 -95.6099Z" fill="#BDBDBD"/>
<path d="M524.706 -95.6099H525.454L440.822 356.289H440.074L524.706 -95.6099Z" fill="#BDBDBD"/>
<path d="M522.171 -95.6099H522.919L438.287 356.289H437.543L522.171 -95.6099Z" fill="#BDBDBD"/>
<path d="M519.636 -95.6099H520.38L435.748 356.289H435.004L519.636 -95.6099Z" fill="#BDBDBD"/>
<path d="M517.097 -95.6099H517.841L433.213 356.289H432.465L517.097 -95.6099Z" fill="#BDBDBD"/>
<path d="M514.561 -95.6099H515.31L430.678 356.289H429.93L514.561 -95.6099Z" fill="#BDBDBD"/>
<path d="M512.026 -95.6099H512.771L428.139 356.289H427.395L512.026 -95.6099Z" fill="#BDBDBD"/>
<path d="M509.491 -95.6099H510.235L425.604 356.289H424.859L509.491 -95.6099Z" fill="#BDBDBD"/>
<path d="M506.952 -95.6099H507.7L423.069 356.289H422.32L506.952 -95.6099Z" fill="#BDBDBD"/>
<path d="M504.413 -95.6099H505.161L420.529 356.289H419.785L504.413 -95.6099Z" fill="#BDBDBD"/>
<path d="M501.882 -95.6099H502.626L417.994 356.289H417.25L501.882 -95.6099Z" fill="#BDBDBD"/>
<path d="M499.343 -95.6099H500.091L415.459 356.289H414.711L499.343 -95.6099Z" fill="#BDBDBD"/>
<path d="M496.807 -95.6099H497.556L412.924 356.289H412.18L496.807 -95.6099Z" fill="#BDBDBD"/>
<path d="M494.272 -95.6099H495.017L410.385 356.289H409.641L494.272 -95.6099Z" fill="#BDBDBD"/>
<path d="M491.733 -95.6099H492.478L407.85 356.289H407.102L491.733 -95.6099Z" fill="#BDBDBD"/>
<path d="M489.198 -95.6099H489.946L405.315 356.289H404.566L489.198 -95.6099Z" fill="#BDBDBD"/>
<path d="M486.663 -95.6099H487.407L402.775 356.289H402.031L486.663 -95.6099Z" fill="#BDBDBD"/>
<path d="M484.128 -95.6099H484.872L400.24 356.289H399.496L484.128 -95.6099Z" fill="#BDBDBD"/>
<path d="M481.589 -95.6099H482.337L397.705 356.289H396.957L481.589 -95.6099Z" fill="#BDBDBD"/>
<path d="M479.05 -95.6099H479.798L395.166 356.289H394.422L479.05 -95.6099Z" fill="#BDBDBD"/>
<path d="M476.518 -95.6099H477.263L392.631 356.289H391.887L476.518 -95.6099Z" fill="#BDBDBD"/>
<path d="M473.979 -95.6099H474.724L390.096 356.289H389.348L473.979 -95.6099Z" fill="#BDBDBD"/>
<path d="M471.444 -95.6099H472.192L387.561 356.289H386.812L471.444 -95.6099Z" fill="#BDBDBD"/>
<path d="M468.909 -95.6099H469.653L385.022 356.289H384.277L468.909 -95.6099Z" fill="#BDBDBD"/>
<path d="M466.374 -95.6099H467.118L382.49 356.289H381.742L466.374 -95.6099Z" fill="#BDBDBD"/>
<path d="M463.835 -95.6099H464.583L379.951 356.289H379.203L463.835 -95.6099Z" fill="#BDBDBD"/>
<path opacity="0.6" fill-rule="evenodd" clip-rule="evenodd" d="M-14.8032 526.016H-15.4766L125.025 -224.596H125.698L-14.8032 526.016ZM-12.5131 526.016H-13.1865L127.315 -224.596H127.988L-12.5131 526.016ZM-10.223 526.016H-10.8964L129.605 -224.596H130.278L-10.223 526.016ZM-7.93298 526.016H-8.60634L131.895 -224.596H132.568L-7.93298 526.016ZM-5.64291 526.016H-6.31666L134.185 -224.596H134.858L-5.64291 526.016ZM-3.35283 526.016H-4.02659L136.475 -224.596H137.148L-3.35283 526.016ZM-1.06276 526.016H-1.73652L138.765 -224.596H139.438L-1.06276 526.016ZM1.22692 526.016H0.553553L141.055 -224.596H141.729L1.22692 526.016ZM3.51699 526.016H2.84363L143.345 -224.596H144.019L3.51699 526.016ZM5.80706 526.016H5.1337L145.635 -224.596H146.308L5.80706 526.016ZM8.09714 526.016H7.42377L147.925 -224.596H148.598L8.09714 526.016ZM10.3872 526.016H9.71345L150.215 -224.596H150.888L10.3872 526.016ZM12.6773 526.016H12.0035L152.505 -224.596H153.178L12.6773 526.016ZM14.9674 526.016H14.2936L154.795 -224.596H155.469L14.9674 526.016ZM17.257 526.016H16.5837L157.085 -224.596H157.759L17.257 526.016ZM19.5471 526.016H18.8737L159.375 -224.596H160.049L19.5471 526.016ZM21.8372 526.016H21.1638L161.665 -224.596H162.338L21.8372 526.016ZM24.1272 526.016H23.4539L163.955 -224.596H164.628L24.1272 526.016ZM26.4173 526.016H25.7436L166.245 -224.596H166.919L26.4173 526.016ZM28.7074 526.016H28.0336L168.535 -224.596H169.209L28.7074 526.016ZM30.9975 526.016H30.3237L170.825 -224.596H171.499L30.9975 526.016ZM33.2871 526.016H32.6138L173.115 -224.596H173.789L33.2871 526.016ZM35.5772 526.016H34.9039L175.405 -224.596H176.079L35.5772 526.016ZM37.8673 526.016H37.1939L177.695 -224.596H178.369L37.8673 526.016ZM40.1574 526.016H39.484L179.985 -224.596H180.659L40.1574 526.016ZM42.4474 526.016H41.7737L182.275 -224.596H182.949L42.4474 526.016ZM44.7375 526.016H44.0637L184.565 -224.596H185.239L44.7375 526.016ZM47.0276 526.016H46.3538L186.855 -224.596H187.529L47.0276 526.016ZM49.3173 526.016H48.6439L189.145 -224.596H189.819L49.3173 526.016ZM51.6073 526.016H50.934L191.435 -224.596H192.109L51.6073 526.016ZM53.8974 526.016H53.224L193.725 -224.596H194.399L53.8974 526.016ZM56.1875 526.016H55.5141L196.015 -224.596H196.689L56.1875 526.016ZM58.4775 526.016H57.8042L198.305 -224.596H198.979L58.4775 526.016ZM60.7676 526.016H60.0939L200.595 -224.596H201.269L60.7676 526.016ZM63.0577 526.016H62.3839L202.885 -224.596H203.559L63.0577 526.016ZM65.3478 526.016H64.674L205.175 -224.596H205.849L65.3478 526.016ZM67.6374 526.016H66.9641L207.465 -224.596H208.139L67.6374 526.016ZM69.9275 526.016H69.2542L209.755 -224.596H210.429L69.9275 526.016ZM72.2176 526.016H71.5442L212.045 -224.596H212.719L72.2176 526.016ZM74.5077 526.016H73.8343L214.336 -224.596H215.009L74.5077 526.016ZM76.7977 526.016H76.124L216.626 -224.596H217.299L76.7977 526.016ZM79.0878 526.016H78.414L218.915 -224.596H219.589L79.0878 526.016ZM81.3779 526.016H80.7041L221.205 -224.596H221.879L81.3779 526.016Z" fill="#BEBEBE"/>
<g opacity="0.6">
<path d="M320.1 -506.017H318.774L18.0586 1100.52H19.3839L320.1 -506.017Z" fill="#BEBEBE"/>
<path d="M324.603 -506.017H323.281L22.5625 1100.52H23.8878L324.603 -506.017Z" fill="#BEBEBE"/>
<path d="M329.113 -506.017H327.787L27.0703 1100.52H28.3957L329.113 -506.017Z" fill="#BEBEBE"/>
<path d="M333.62 -506.017H332.294L31.5781 1100.52H32.9035L333.62 -506.017Z" fill="#BEBEBE"/>
<path d="M338.127 -506.017H336.8L36.0859 1100.52H37.4113L338.127 -506.017Z" fill="#BEBEBE"/>
<path d="M342.633 -506.017H341.307L40.5898 1100.52H41.9152L342.633 -506.017Z" fill="#BEBEBE"/>
<path d="M347.136 -506.017H345.81L45.0938 1100.52H46.4191L347.136 -506.017Z" fill="#BEBEBE"/>
</g>
<g opacity="0.6">
<path d="M351.257 -506.017H349.931L49.2148 1100.52H50.5402L351.257 -506.017Z" fill="#BEBEBE"/>
<path d="M355.76 -506.017H354.434L53.7188 1100.52H55.0441L355.76 -506.017Z" fill="#BEBEBE"/>
<path d="M360.266 -506.017H358.944L58.2266 1100.52H59.5519L360.266 -506.017Z" fill="#BEBEBE"/>
<path d="M364.777 -506.017H363.451L62.7344 1100.52H64.0597L364.777 -506.017Z" fill="#BEBEBE"/>
<path d="M369.284 -506.017H367.957L67.2422 1100.52H68.5675L369.284 -506.017Z" fill="#BEBEBE"/>
<path d="M373.786 -506.017H372.464L71.7461 1100.52H73.0714L373.786 -506.017Z" fill="#BEBEBE"/>
<path d="M378.293 -506.017H376.967L76.25 1100.52H77.5753L378.293 -506.017Z" fill="#BEBEBE"/>
</g>
<path d="M23.2225 -8.11646H-4.84703L-157.672 808.333H-129.602L23.2225 -8.11646Z" fill="#E0E0E0"/>
<path d="M20.4304 -8.1167H23.2228L-129.602 808.333H-132.395L20.4304 -8.1167Z" fill="#E0E0E0"/>
<path d="M0.408356 -8.11646H-0.265015L-153.09 808.333H-152.416L0.408356 -8.11646Z" fill="#F2F2F2"/>
<path d="M2.69351 -8.1167H2.02016L-150.805 808.333H-150.131L2.69351 -8.1167Z" fill="#F2F2F2"/>
<path d="M4.98688 -8.1167H4.31351L-148.512 808.333H-147.838L4.98688 -8.1167Z" fill="#F2F2F2"/>
<path d="M7.27594 -8.1167H6.60257L-146.223 808.333H-145.549L7.27594 -8.1167Z" fill="#F2F2F2"/>
<path d="M9.56891 -8.1167H8.89516L-143.93 808.333H-143.256L9.56891 -8.1167Z" fill="#F2F2F2"/>
<path d="M834.212 0.000732422H593.503L440.68 816.45H681.385L834.212 0.000732422Z" fill="#D9D9D9"/>
<path d="M586.774 0.000732422H573.116L420.293 816.45H433.95L586.774 0.000732422Z" fill="#D9D9D9"/>
</g>
</g>
</svg>

<svg width="665" height="807" fill="none" xmlns="http://www.w3.org/2000/svg"><mask id="a" style="mask-type:luminance" maskUnits="userSpaceOnUse" x="-97" y="0" width="860" height="809"><path d="M762.316 0H-96.313v808.187h858.629V0Z" fill="#fff"/></mask><g mask="url(#a)"><path d="M762.316.001H-96.313v808.187h858.629V.001Z" fill="#D9D9D9"/><g opacity=".5"><path d="m761.53 811.343-364.987.002L548.753.001 761.53 0v811.343Z" fill="#F2F2F2"/><path d="M452.675 356.29h.744l-84.632 451.899h-.744l84.632-451.899ZM450.136 356.29h.744l-84.628 451.899h-.748l84.632-451.899ZM447.601 356.29h.748l-84.632 451.899h-.748l84.632-451.899ZM445.065 356.29h.745l-84.632 451.899h-.744l84.631-451.899ZM442.53 356.29h.744l-84.631 451.899h-.745L442.53 356.29ZM439.991 356.29h.748l-84.631 451.899h-.749l84.632-451.899ZM437.456 356.29h.748l-84.632 451.899h-.744l84.628-451.899ZM434.921 356.29h.744l-84.632 451.899h-.744l84.632-451.899ZM432.382 356.29h.744l-84.628 451.899h-.748l84.632-451.899ZM429.847 356.29h.748l-84.632 451.899h-.748l84.632-451.899ZM427.311 356.29h.745l-84.632 451.899h-.744l84.631-451.899ZM424.776 356.29h.744l-84.631 451.899h-.744l84.631-451.899ZM422.237 356.29h.748l-84.631 451.899h-.749l84.632-451.899ZM419.698 356.29h.748l-84.631 451.899h-.745l84.628-451.899ZM417.167 356.29h.744l-84.632 451.899h-.744l84.632-451.899ZM414.628 356.29h.748l-84.632 451.899h-.748l84.632-451.899ZM412.093 356.29h.748l-84.632 451.899h-.744l84.628-451.899ZM409.558 356.29h.744L325.67 808.189h-.744l84.632-451.899ZM407.018 356.29h.745l-84.628 451.899h-.748l84.631-451.899ZM404.483 356.29h.748L320.6 808.189h-.748l84.631-451.899ZM401.948 356.29h.744l-84.631 451.899h-.745l84.632-451.899ZM399.413 356.29h.744l-84.632 451.899h-.744l84.632-451.899ZM396.874 356.29h.748L312.99 808.189h-.748l84.632-451.899ZM394.339 356.29h.748l-84.632 451.899h-.744l84.628-451.899ZM391.804 356.29h.744l-84.632 451.899h-.744l84.632-451.899ZM389.265 356.29h.744l-84.628 451.899h-.748l84.632-451.899ZM386.729 356.29h.749l-84.632 451.899h-.748l84.631-451.899ZM384.194 356.29h.744l-84.631 451.899h-.745l84.632-451.899ZM381.659 356.29h.744l-84.63 451.899h-.746l84.632-451.899ZM379.118 356.29h.749l-84.633 451.899h-.746l84.63-451.899ZM537.39-95.61h.744L453.502 356.29h-.744L537.39-95.61Z" fill="#BDBDBD"/><path d="M534.854-95.61h.745L450.971 356.29h-.748L534.854-95.61ZM532.315-95.61h.749L448.432 356.29h-.748L532.315-95.61ZM529.78-95.61h.744L445.893 356.29h-.745L529.78-95.61ZM527.245-95.61h.744L443.358 356.29h-.745L527.245-95.61ZM524.706-95.61h.748L440.822 356.29h-.748L524.706-95.61ZM522.171-95.61h.748L438.287 356.29h-.744L522.171-95.61ZM519.636-95.61h.744L435.748 356.29h-.744L519.636-95.61ZM517.097-95.61h.744L433.213 356.29h-.748L517.097-95.61ZM514.561-95.61h.749L430.678 356.29h-.748L514.561-95.61ZM512.026-95.61h.745L428.139 356.29h-.744L512.026-95.61ZM509.491-95.61h.744L425.604 356.29h-.745L509.491-95.61ZM506.952-95.61h.748L423.069 356.29h-.749L506.952-95.61ZM504.413-95.61h.748L420.529 356.29h-.744L504.413-95.61ZM501.882-95.61h.744L417.994 356.29h-.744L501.882-95.61ZM499.343-95.61h.748L415.459 356.29h-.748L499.343-95.61ZM496.807-95.61h.749L412.924 356.29h-.744L496.807-95.61ZM494.272-95.61h.745L410.385 356.29h-.744L494.272-95.61ZM491.733-95.61h.745L407.85 356.29h-.748L491.733-95.61ZM489.198-95.61h.748L405.315 356.29h-.749L489.198-95.61ZM486.663-95.61h.744L402.775 356.29h-.744L486.663-95.61ZM484.128-95.61h.744L400.24 356.29h-.744L484.128-95.61ZM481.589-95.61h.748L397.705 356.29h-.748L481.589-95.61ZM479.05-95.61h.748L395.166 356.29h-.744L479.05-95.61ZM476.518-95.61h.745L392.631 356.29h-.744L476.518-95.61ZM473.979-95.61h.745L390.096 356.29h-.748L473.979-95.61ZM471.444-95.61h.748L387.561 356.29h-.749L471.444-95.61ZM468.909-95.61h.744L385.022 356.29h-.745L468.909-95.61ZM466.374-95.61h.744L382.49 356.29h-.748L466.374-95.61ZM463.835-95.61h.748L379.951 356.29h-.748L463.835-95.61Z" fill="#BDBDBD"/><path opacity=".6" fill-rule="evenodd" clip-rule="evenodd" d="M-14.803 526.016h-.674l140.502-750.612h.673L-14.803 526.016Zm2.29 0h-.674l140.502-750.612h.673L-12.513 526.016Zm2.29 0h-.673l140.501-750.612h.673L-10.223 526.016Zm2.29 0h-.673l140.501-750.612h.673L-7.933 526.016Zm2.29 0h-.674l140.502-750.612h.673l-140.5 750.612Zm2.29 0h-.674l140.502-750.612h.673l-140.5 750.612Zm2.29 0h-.674l140.502-750.612h.673l-140.5 750.612Zm2.29 0H.554l140.501-750.612h.674L1.227 526.016Zm2.29 0h-.673l140.501-750.612h.674L3.517 526.016Zm2.29 0h-.673l140.501-750.612h.673L5.808 526.016Zm2.29 0h-.673l140.501-750.612h.673L8.098 526.016Zm2.29 0h-.674l140.502-750.612h.673l-140.5 750.612Zm2.29 0h-.673l140.501-750.612h.673l-140.5 750.612Zm2.29 0h-.673l140.501-750.612h.674L14.967 526.016Zm2.29 0h-.673l140.501-750.612h.674L17.257 526.016Zm2.29 0h-.673l140.501-750.612h.674L19.547 526.016Zm2.29 0h-.673l140.501-750.612h.673l-140.5 750.612Zm2.29 0h-.673l140.501-750.612h.673l-140.5 750.612Zm2.29 0h-.673l140.501-750.612h.674L26.417 526.016Zm2.29 0h-.673l140.501-750.612h.674L28.707 526.016Zm2.29 0h-.673l140.501-750.612h.674L30.998 526.016Zm2.29 0h-.673l140.501-750.612h.674L33.287 526.016Zm2.29 0h-.673l140.501-750.612h.674L35.577 526.016Zm2.29 0h-.673l140.501-750.612h.674L37.867 526.016Zm2.29 0h-.673l140.501-750.612h.674L40.157 526.016Zm2.29 0h-.673l140.501-750.612h.674L42.447 526.016Zm2.29 0h-.673l140.501-750.612h.674L44.737 526.016Zm2.29 0h-.673l140.501-750.612h.674L47.028 526.016Zm2.29 0h-.673l140.501-750.612h.674L49.317 526.016Zm2.29 0h-.673l140.501-750.612h.674L51.607 526.016Zm2.29 0h-.673l140.501-750.612h.674L53.897 526.016Zm2.29 0h-.673l140.501-750.612h.674L56.188 526.016Zm2.29 0h-.673l140.501-750.612h.674L58.477 526.016Zm2.29 0h-.673l140.501-750.612h.674L60.768 526.016Zm2.29 0h-.673l140.501-750.612h.674L63.058 526.016Zm2.29 0h-.673l140.501-750.612h.674L65.348 526.016Zm2.29 0h-.673l140.501-750.612h.674L67.637 526.016Zm2.29 0h-.673l140.501-750.612h.674L69.927 526.016Zm2.29 0h-.673l140.501-750.612h.674L72.218 526.016Zm2.29 0h-.673l140.502-750.612h.673L74.508 526.016Zm2.29 0h-.673l140.502-750.612h.673L76.798 526.016Zm2.29 0h-.673l140.501-750.612h.674L79.088 526.016Zm2.29 0h-.673l140.501-750.612h.674L81.378 526.016Z" fill="#BEBEBE"/><g opacity=".6" fill="#BEBEBE"><path d="M320.1-506.017h-1.326L18.059 1100.52h1.325L320.1-506.017ZM324.603-506.017h-1.322L22.562 1100.52h1.326L324.603-506.017ZM329.113-506.017h-1.326L27.07 1100.52h1.326L329.113-506.017ZM333.62-506.017h-1.326L31.578 1100.52h1.326L333.62-506.017ZM338.127-506.017H336.8L36.086 1100.52h1.325L338.127-506.017ZM342.633-506.017h-1.326L40.59 1100.52h1.325L342.633-506.017ZM347.136-506.017h-1.326L45.094 1100.52h1.325L347.136-506.017Z"/></g><g opacity=".6" fill="#BEBEBE"><path d="M351.257-506.017h-1.326L49.215 1100.52h1.325L351.257-506.017ZM355.76-506.017h-1.326L53.719 1100.52h1.325L355.76-506.017ZM360.266-506.017h-1.322L58.227 1100.52h1.325L360.266-506.017ZM364.777-506.017h-1.326L62.734 1100.52h1.326L364.777-506.017ZM369.284-506.017h-1.327L67.242 1100.52h1.325L369.284-506.017ZM373.786-506.017h-1.322L71.746 1100.52h1.325L373.786-506.017ZM378.293-506.017h-1.326L76.25 1100.52h1.325L378.293-506.017Z"/></g><path d="M23.223-8.116h-28.07l-152.825 816.449h28.07L23.223-8.117Z" fill="#E0E0E0"/><path d="M20.43-8.117h2.793l-152.825 816.45h-2.793L20.43-8.117Z" fill="#E0E0E0"/><path d="M.408-8.116h-.673L-153.09 808.333h.674L.408-8.117ZM2.694-8.117H2.02l-152.825 816.45h.674L2.694-8.117ZM4.987-8.117h-.673l-152.826 816.45h.674L4.987-8.117ZM7.276-8.117h-.673l-152.826 816.45h.674L7.276-8.117ZM9.569-8.117h-.674l-152.825 816.45h.674L9.569-8.117Z" fill="#F2F2F2"/><path d="M834.212 0H593.503L440.68 816.45h240.705L834.212 0ZM586.774 0h-13.658L420.293 816.45h13.657L586.774 0Z" fill="#D9D9D9"/></g></g></svg>
